flaticon/file-type/mp3.svg

<svg xmlns="http://www.w3.org/2000/svg" width="32" height="32" viewBox="0 0 24 24">
    <path d="M 21.082031 5.042969 L 16.585938 0.546875 L 16.269531 0.226562 C 16.121094 0.0820312 15.925781 0 15.71875 0 L 3.707031 0 C 3.144531 0 2.691406 0.457031 2.691406 1.019531 L 2.691406 22.980469 C 2.691406 23.542969 3.144531 24 3.707031 24 L 20.292969 24 C 20.851562 24 21.308594 23.542969 21.308594 22.980469 L 21.308594 5.59375 C 21.308594 5.386719 21.230469 5.191406 21.082031 5.042969 Z M 19.835938 4.964844 L 16.34375 4.964844 L 16.34375 1.476562 Z M 20.484375 22.980469 C 20.484375 23.085938 20.398438 23.171875 20.292969 23.171875 L 3.707031 23.171875 C 3.601562 23.171875 3.515625 23.085938 3.515625 22.980469 L 3.515625 16.964844 L 20.484375 16.964844 Z M 3.515625 16.136719 L 3.515625 1.019531 C 3.515625 0.914062 3.601562 0.828125 3.707031 0.828125 L 15.542969 0.828125 C 15.527344 0.878906 15.515625 0.933594 15.515625 0.988281 L 15.515625 5.792969 L 20.320312 5.792969 C 20.375 5.792969 20.429688 5.78125 20.484375 5.769531 L 20.484375 16.136719 Z M 3.515625 16.136719"/>
    <path d="M7.210938 19.476562L8.148438 21.796875 8.75 21.796875 9.683594 19.476562 9.683594 22.34375 10.371094 22.34375 10.371094 18.175781 9.683594 18.175781 8.449219 21.027344 7.210938 18.175781 6.519531 18.175781 6.519531 22.34375 7.210938 22.34375zM12.085938 20.839844L12.589844 20.839844C12.808594 20.839844 13.007812 20.808594 13.191406 20.742188 13.371094 20.679688 13.527344 20.589844 13.65625 20.472656 13.78125 20.355469 13.882812 20.210938 13.953125 20.039062 14.027344 19.867188 14.0625 19.675781 14.0625 19.464844 14.0625 19.265625 14.019531 19.085938 13.933594 18.925781 13.851562 18.765625 13.738281 18.628906 13.601562 18.515625 13.460938 18.402344 13.308594 18.316406 13.132812 18.261719 12.960938 18.203125 12.785156 18.175781 12.609375 18.175781L11.410156 18.175781 11.410156 22.34375 12.085938 22.34375zM12.085938 18.691406L12.597656 18.691406C12.769531 18.691406 12.910156 18.71875 13.015625 18.773438 13.121094 18.828125 13.203125 18.894531 13.261719 18.976562 13.320312 19.058594 13.359375 19.140625 13.378906 19.230469 13.394531 19.320312 13.40625 19.398438 13.40625 19.464844 13.40625 19.632812 13.382812 19.777344 13.34375 19.890625 13.300781 20.007812 13.246094 20.097656 13.179688 20.160156 13.113281 20.222656 13.035156 20.269531 12.957031 20.300781 12.875 20.328125 12.792969 20.339844 12.710938 20.339844L12.085938 20.339844zM15.769531 21.886719C15.59375 21.886719 15.453125 21.878906 15.351562 21.867188 15.25 21.855469 15.171875 21.835938 15.113281 21.816406 15.058594 21.796875 15.015625 21.773438 14.984375 21.75 14.953125 21.730469 14.921875 21.707031 14.886719 21.6875L14.734375 22.175781C14.808594 22.21875 14.933594 22.265625 15.117188 22.308594 15.300781 22.351562 15.550781 22.375 15.867188 22.375 15.910156 22.375 15.976562 22.371094 16.054688 22.363281 16.136719 22.355469 16.226562 22.335938 16.324219 22.3125 16.421875 22.285156 16.523438 22.246094 16.628906 22.191406 16.730469 22.136719 16.824219 22.0625 16.90625 21.972656 16.992188 21.882812 17.058594 21.769531 17.113281 21.628906 17.167969 21.492188 17.195312 21.328125 17.195312 21.140625 17.195312 20.984375 17.171875 20.847656 17.117188 20.730469 17.0625 20.613281 17 20.511719 16.917969 20.425781 16.839844 20.34375 16.753906 20.28125 16.660156 20.234375 16.570312 20.191406 16.480469 20.160156 16.394531 20.152344 16.460938 20.136719 16.535156 20.105469 16.613281 20.058594 16.691406 20.007812 16.765625 19.949219 16.828125 19.878906 16.894531 19.808594 16.945312 19.722656 16.988281 19.628906 17.027344 19.53125 17.050781 19.425781 17.050781 19.308594 17.050781 19.109375 17.015625 18.933594 16.945312 18.785156 16.875 18.640625 16.78125 18.519531 16.660156 18.425781 16.542969 18.332031 16.402344 18.261719 16.246094 18.21875 16.085938 18.175781 15.917969 18.152344 15.742188 18.152344 15.488281 18.152344 15.296875 18.167969 15.164062 18.199219 15.027344 18.230469 14.914062 18.257812 14.824219 18.285156L15.023438 18.792969C15.078125 18.773438 15.15625 18.75 15.257812 18.714844 15.363281 18.683594 15.5 18.667969 15.675781 18.667969 15.847656 18.667969 15.984375 18.6875 16.082031 18.726562 16.179688 18.765625 16.253906 18.820312 16.304688 18.882812 16.355469 18.945312 16.386719 19.015625 16.398438 19.09375 16.410156 19.167969 16.414062 19.238281 16.414062 19.308594 16.414062 19.476562 16.390625 19.609375 16.34375 19.699219 16.292969 19.789062 16.230469 19.851562 16.15625 19.890625 16.078125 19.929688 16 19.949219 15.914062 19.953125 15.828125 19.957031 15.746094 19.957031 15.664062 19.957031L15.277344 19.957031 15.285156 20.417969 15.855469 20.417969C16.082031 20.417969 16.253906 20.484375 16.371094 20.625 16.488281 20.765625 16.546875 20.9375 16.546875 21.140625 16.546875 21.355469 16.480469 21.535156 16.355469 21.675781 16.226562 21.816406 16.03125 21.886719 15.769531 21.886719zM14.21875 5.640625C12.597656 4.347656 12.25 3.046875 12.207031 2.855469L12.207031 2.484375C12.207031 2.253906 12.023438 2.070312 11.792969 2.070312 11.5625 2.070312 11.378906 2.253906 11.378906 2.484375L11.378906 10.101562 9.847656 10.101562C8.238281 10.101562 7.242188 10.914062 7.242188 12.21875 7.242188 13.652344 8.167969 14.578125 9.601562 14.578125 11.039062 14.578125 12.207031 13.410156 12.207031 11.976562L12.207031 7.226562 12.332031 7.328125C12.472656 7.46875 12.6875 7.625 12.960938 7.828125 13.917969 8.535156 15.523438 9.71875 15.121094 11.050781 15.109375 11.09375 15.101562 11.132812 15.101562 11.171875 15.101562 11.351562 15.21875 11.515625 15.398438 11.570312 15.4375 11.582031 15.476562 11.585938 15.515625 11.585938 15.695312 11.585938 15.859375 11.472656 15.914062 11.292969 16.585938 9.066406 15.738281 7.40625 15.171875 6.613281 14.9375 6.285156 14.636719 5.976562 14.21875 5.640625zM11.378906 11.976562C11.378906 12.957031 10.582031 13.753906 9.601562 13.753906 8.628906 13.753906 8.070312 13.195312 8.070312 12.21875 8.070312 11.152344 9.035156 10.929688 9.847656 10.929688L11.378906 10.929688zM13.449219 7.160156C13.214844 6.988281 13.007812 6.835938 12.882812 6.714844L12.207031 6.160156 12.207031 4.722656C12.550781 5.207031 13.027344 5.75 13.703125 6.289062 14.054688 6.574219 14.3125 6.828125 14.5 7.09375 14.796875 7.511719 15.09375 8.0625 15.238281 8.742188 14.691406 8.074219 13.964844 7.539062 13.449219 7.160156zM13.449219 7.160156"/>
</svg>

<svg xmlns="http://www.w3.org/2000/svg" width="32" height="32" viewBox="0 0 24 24">
    <path d="M21.082 5.043L16.586.547l-.316-.32A.787.787 0 0 0 15.719 0H3.707c-.562 0-1.016.457-1.016 1.02v21.96c0 .563.454 1.02 1.016 1.02h16.586a1.02 1.02 0 0 0 1.016-1.02V5.594a.77.77 0 0 0-.227-.551zm-1.246-.078h-3.492V1.477zm.648 18.015a.192.192 0 0 1-.191.192H3.707a.192.192 0 0 1-.191-.192v-6.015h16.968zM3.516 16.137V1.02c0-.106.086-.192.191-.192h11.836a.55.55 0 0 0-.027.16v4.805h4.804c.055 0 .11-.012.164-.023v10.367zm0 0"/>
    <path d="M7.21 19.477l.938 2.32h.602l.934-2.32v2.867h.687v-4.168h-.687l-1.235 2.851-1.238-2.851H6.52v4.168h.69zm0 0M12.086 20.84h.504c.219 0 .418-.031.601-.098.18-.062.336-.152.465-.27.125-.117.227-.261.297-.433.074-.172.11-.363.11-.574 0-.2-.043-.38-.13-.54a1.303 1.303 0 0 0-.331-.41 1.4 1.4 0 0 0-.47-.253 1.615 1.615 0 0 0-.523-.086H11.41v4.168h.676zm0-2.149h.512c.172 0 .312.028.418.082a.675.675 0 0 1 .363.457 1.324 1.324 0 0 1-.035.66.69.69 0 0 1-.164.27.713.713 0 0 1-.223.14.771.771 0 0 1-.246.04h-.625zm0 0M15.77 21.887c-.176 0-.317-.008-.418-.02a1.177 1.177 0 0 1-.239-.05.491.491 0 0 1-.129-.067c-.03-.02-.062-.043-.097-.063l-.153.489c.075.043.2.09.383.133a3.42 3.42 0 0 0 .938.054 1.592 1.592 0 0 0 .574-.172 1.055 1.055 0 0 0 .484-.562c.055-.137.082-.3.082-.488a.961.961 0 0 0-.078-.41 1.112 1.112 0 0 0-.199-.305.922.922 0 0 0-.258-.192.8.8 0 0 0-.265-.082.784.784 0 0 0 .218-.093c.078-.051.153-.11.215-.18a.913.913 0 0 0 .16-.25.851.851 0 0 0 .063-.32c0-.2-.035-.375-.106-.524a.997.997 0 0 0-.285-.36 1.147 1.147 0 0 0-.414-.206 1.937 1.937 0 0 0-.504-.067 2.684 2.684 0 0 0-.918.133l.2.508c.054-.02.132-.043.234-.078.105-.031.242-.047.418-.047.172 0 .308.02.406.059.098.039.172.093.223.156a.43.43 0 0 1 .093.21c.012.075.016.145.016.216 0 .168-.023.3-.07.39a.466.466 0 0 1-.188.192.586.586 0 0 1-.242.062c-.086.004-.168.004-.25.004h-.387l.008.461h.57c.227 0 .399.066.516.207.117.14.176.313.176.516a.78.78 0 0 1-.192.535c-.128.14-.324.21-.585.21zm0 0M14.219 5.64c-1.621-1.292-1.969-2.593-2.012-2.785v-.37a.412.412 0 0 0-.414-.415.412.412 0 0 0-.414.414v7.618H9.848c-1.61 0-2.606.812-2.606 2.117 0 1.433.926 2.36 2.36 2.36a2.607 2.607 0 0 0 2.605-2.602v-4.75l.125.101c.14.14.355.297.629.5.957.707 2.562 1.89 2.16 3.223a.417.417 0 0 0 .395.535c.18 0 .343-.113.398-.293a5.268 5.268 0 0 0-.742-4.68c-.235-.328-.535-.636-.953-.972zm-2.84 6.337c0 .98-.797 1.777-1.777 1.777-.973 0-1.532-.559-1.532-1.535 0-1.067.965-1.29 1.778-1.29h1.53zm2.07-4.817a6.164 6.164 0 0 1-.566-.445l-.676-.555V4.723c.344.484.82 1.027 1.496 1.566.352.285.61.54.797.805.297.418.594.968.738 1.648-.547-.668-1.273-1.203-1.789-1.582zm0 0"/>
</svg>
